X:86
T:Green Grow The Rushes O. Le4.086
B:L.Leadley MS#4 c1850
Z:Village Music Project, 2016 Steve Mansfield
M:C
L:1/8
Q:2/4=75
K:Gmix
G2Bd dGGB | ABcd eAAB | cded cBAG | AcBA GEE2 :|
|: g2ge dBAG | g2ga geef | g2ge dBAG | AcBA GEE2 :|

